X: 39007
T: Swallowtail, The
R: jig
M: 6/8
K: Adorian
cAA EAA|cAc edc|BGG DGG|BG/A/B d2 B|
cAA E2 A|cA/B/c e2 f|gfg dcB|cA^G A2:|
ef^g a2 b|a2 b age|efg a2 b|age g3|
ee/f/^g a2 b|a2 b age|gfg d2 B|cA^G A2:|

